!!!!SEGMENT: pl-cz--ii-16--010_szlagorski-walenty--talnce-mazur-4.krn
!!!cenid: 18xx:1074
!!!COM: Szlagórski, Walenty
!!!COM-rismID: pe30111815
!!!CDT: 1801-1863/07/16
!!!CNT: Polish
!!!GTL: Tańce
!!!OTL: Mazur 4
!!!PDT:
!!!AGN: Secular; Mazurka
!!!SMS-siglum: PL-CZ
!!!SMS-shelfmark: II-16
!!!SMS-shelfwork: 010 G
!!!SMS-variant:
!!!SMS-altvar:
!!!NIFC-rismSourceID: 300001293
!!!NIFC-rismChildID: 300001303
!!!NIFC-islandoraID: pl-cz:32636
!!!URL-pdf-islandora: https://repozytorium.nifc.pl/islandora/object/pl-cz%3A32636/datastream/PDF/view
!!!URL-scan: https://polish.musicsources.pl/pl/lokalizacje/galeria/rekopisy/6770/1 @EN{Scan on Polish Music Sources Website} @PL{Skany w portalu Dziedzictwo Muzyki Polskiej w otwartym dostępie}
!!!ONB-nifc: UWAGA: zbiór zawiera Walce nr 1-5, Galop, Mazury nr 1-4
!!!AIN: 2 clars 2 cor 2 empty 1 flt 2 violn
!!!key:
**kern	**kern	**kern	**kern	**kern	**kern	**kern	**kern	**kern
*part9	*part8	*part7	*part6	*part5	*part4	*part3	*part2	*part1
*group3	*group3	*group3	*group2	*group2	*group2	*group1	*group1	*group1
*staff9	*staff8	*staff7	*staff6	*staff5	*staff4	*staff3	*staff2	*staff1
*Iempty	*Ivioln	*Ivioln	*Iempty	*Icor	*Icor	*Iclars	*Iclars	*Iflt
*I"Baſso	*I"Violino 2.do	*I"Violino 1mo	*I"Clarino. in D.	*I"Corno 2do in D.	*I"Corno 1mo in D.	*I"Clarinetto 2do in A.	*I"Clarinetto 1mo in A.	*I"Flauto
*mI"Basso	*mI"Violno 2	*mI" Violino 1	*	*	*	*mI"Clarinetto 2 in C	*mI"Clarinetto 1 in C	*
*I'b	*I'vl 2	*I'vl 1	*I'clno in D	*I'cor 2 in D	*I'cor 1 in D	*I'cl 2 in A	*I'cl 1 in A	*I'fl
*clefF4	*clefG2	*clefG2	*clefG2	*clefG2	*clefG2	*clefG2	*clefG2	*clefG2
*	*	*	*ITrd-1c-2	*ITrd6c10	*ITrd6c10	*	*	*
*	*kcancel	*kcancel	*	*	*	*kcancel	*kcancel	*kcancel
*k[f#c#]	*k[f#c#]	*k[f#c#]	*k[f#c#]	*k[f#c#]	*k[f#c#]	*k[f#c#]	*k[f#c#]	*k[f#c#]
*D:	*D:	*D:	*D:	*D:	*D:	*D:	*D:	*D:
*M3/8	*M3/8	*M3/8	*M3/8	*M3/8	*M3/8	*M3/8	*M3/8	*M3/8
*	*	*	*tacet	*	*	*	*	*
*>[A,A,B,B1,B,B2,C,A]	*>[A,A,B,B1,B,B2,C,A]	*>[A,A,B,B1,B,B2,C,A]	*>[A,A,B,B1,B,B2,C,A]	*>[A,A,B,B1,B,B2,C,A]	*>[A,A,B,B1,B,B2,C,A]	*>[A,A,B,B1,B,B2,C,A]	*>[A,A,B,B1,B,B2,C,A]	*>[A,A,B,B1,B,B2,C,A]
=1	=1	=1	=1	=1	=1	=1	=1	=1
*>A	*>A	*>A	*>A	*>A	*>A	*>A	*>A	*>A
*tremolo	*tremolo	*	*	*	*	*	*	*
!	!	!	!	!LO:TX:t=D.:mod=	!	!	!	!
!	!	!	!LO:TX:a:t=proszę sobie według Cornów odegrać	!LO:TX:a:t=6:mod=	!LO:TX:a:t=6:mod=	!LO:TX:t=in C.:mod=	!LO:TX:t=[in C]:mod=	!
!	!	!	!	!LO:MO:mod=!null:null	!LO:MO:mod=!null:null	!	!	!
!	!	!	!	!LO:N:vis=00	!LO:N:vis=00	!	!	!
8D\L	8f#L 8A/	16a/LL	4.ryy	1.r	1.r	16f#/LL	16a/LL	16a/LL
.	.	16a/JJ	.	.	.	16f#/JJ	16a/JJ	16a/JJ
8D\	8f# 8A/	8dd\L	.	.	.	8a/L	8dd\L	8dd\L
8D\J	8f#J 8A/	8ff#\J	.	.	.	8dd/J	8ff#\J	8ff#\J
=2	=2	=2	=2	=2	=2	=2	=2	=2
8D\L	8f#L 8A/	4aa\	4.ryy	.	.	4ff#\	4aa\	4aa\
8D\	8f# 8A/	.	.	.	.	.	.	.
8D\J	8f#J 8A/	16gg#X\LL	.	.	.	16ee#X\LL	16gg#X\LL	16gg#X\LL
*	*Xtremolo	*	*	*	*	*	*	*
.	.	16aa\JJ	.	.	.	16ff#\JJ	16aa\JJ	16aa\JJ
=3	=3	=3	=3	=3	=3	=3	=3	=3
8D\L	8f#L 8A/	16bb\LL	4.ryy	.	.	16gg\LL	16bb\LL	16bb\LL
.	.	16bb\JJ	.	.	.	16gg\JJ	16bb\JJ	16bb\JJ
8D\	8f# 8A/	8aa\L	.	.	.	8ff#\L	8aa\L	8aa\L
8D\J	8fnJ 8A/	8gg#X\J	.	.	.	8ee#X\J	8gg#X\J	8gg#X\J
=4	=4	=4	=4	=4	=4	=4	=4	=4
*	*tremolo	*	*	*	*	*	*	*
8D\L	8f#XL 8A/	4aa\	4.ryy	.	.	4ff#\	4aa\	4aa\
8D\	8f# 8A/	.	.	.	.	.	.	.
8D\J	8f#J 8A/	16gg#X\LL	.	.	.	16ee#X\LL	16gg#X\LL	16gg#X\LL
*	*Xtremolo	*	*	*	*	*	*	*
.	.	16aa\JJ	.	.	.	16ff#\JJ	16aa\JJ	16aa\JJ
=5	=5	=5	=5	=5	=5	=5	=5	=5
!	!	!	!	!LO:MO:mod=!null:null	!LO:MO:mod=!null:null	!	!	!
!	!	!	!	!LO:N:vis=0	!LO:N:vis=0	!	!	!
8D\L	8f#L 8A/	16bb\LL	4.ryy	2.r	2.r	16gg\LL	16bb\LL	16bb\LL
.	.	16bb\JJ	.	.	.	16gg\JJ	16bb\JJ	16bb\JJ
8D\	8f# 8A/	8aa\L	.	.	.	8ff#\L	8aa\L	8aa\L
8D\J	8fnJ 8A/	8gg#X\J	.	.	.	8ee#X\J	8gg#X\J	8gg#X\J
!	!	!LO:LB:g=original	!	!	!	!LO:LB:g=original	!LO:LB:g=original	!
=6	=6	=6	=6	=6	=6	=6	=6	=6
*	*tremolo	*	*	*	*	*	*	*
8D\L	8f#XL 8A/	4aa\	4.ryy	.	.	4ff#\	4aa\	4aa\
8D\	8f# 8A/	.	.	.	.	.	.	.
8D\J	8f#J 8A/	16bb\LL	.	.	.	8ff#\	16bb\LL	16bb\LL
*Xtremolo	*	*	*	*	*	*	*	*
.	.	16aa\JJ	.	.	.	.	16aa\JJ	16aa\JJ
!	!LO:LB:g=original	!	!	!	!	!	!	!
=7	=7	=7	=7	=7	=7	=7	=7	=7
*	*	*	*	*tremolo	*tremolo	*	*	*
.	.	8qaa/	.	.	.	.	.	8qaa/
8AA/	8gL 8A/	16ggn\LL	4.ryy	8A\L	8e\L	8ee\L	8ggn\L	16ggn\LL
.	.	16ff#\	.	.	.	.	.	16ff#\
8r	8g 8A/	16gg\	.	8A\	8e\	8cc#\	8ff#\	16gg\
.	.	16ee\	.	.	.	.	.	16ee\
8r	8gJ 8A/	16bb\	.	8A\J	8e\J	8a\J	8cc#\J	16bb\
.	.	16aa\JJ	.	.	.	.	.	16aa\JJ
=8	=8	=8	=8	=8	=8	=8	=8	=8
4D\	8f#L 8A/	16ff#\LL	4.ryy	8d\L	8f#\L	8a/	8dd\	16ff#\LL
.	.	16dd\JJ	.	.	.	.	.	16dd\JJ
.	8f# 8A/	8.aa\L	.	8d\	8f#\	8r	8r	8.aa\L
8r	8f#J 8A/	.	.	8d\J	8f#\J	8a/	8dd\	.
.	.	16ff#\Jk	.	.	.	.	.	16ff#\Jk
!	!	!	!	!	!	!	!	!LO:LB:g=original
=9	=9	=9	=9	=9	=9	=9	=9	=9
4AA/	8gL 8A/	16ff#\LL	4.ryy	8A\L	8e\L	8a/	8cc#\	16ff#\LL
.	.	16ee\JJ	.	.	.	.	.	16ee\JJ
.	8g 8A/	8a\L	.	8A\	8e\	8r	8r	8.a/L
8r	8gJ 8A/	8cc#\J	.	8A\J	8e\J	8a/	8cc#\	.
.	.	.	.	.	.	.	.	16cc#/Jk
!LO:LB:g=original	!	!	!	!	!	!	!	!
=10	=10	=10	=10	=10	=10	=10	=10	=10
*	*	*	*	*	*	*rep	*	*
4D\	8f#L 8A/	4dd\	4.ryy	8d\L	8f#\L	8a/	8dd\	4dd\
.	8f# 8A/	.	.	8d\	8f#\	8r	8r	.
8r	8f#J 8A/	16ff#\LL	.	8d\J	8f#\J	8a/	8dd\	16ff#\LL
.	.	16aa\JJ	.	.	.	.	.	16aa\JJ
*	*	*	*	*	*	*Xrep	*	*
=11	=11	=11	=11	=11	=11	=11	=11	=11
*	*	*	*	*	*	*rep	*	*
.	.	8qaa/	.	.	.	.	.	8qaa/
4AA/	8gL 8A/	16gg\LL	4.ryy	8A\L	8e\L	8a/	8cc#\	16gg\LL
.	.	16ff#\	.	.	.	.	.	16ff#\
.	8g 8A/	16gg\	.	8A\	8e\	8r	8r	16gg\
.	.	16ee\	.	.	.	.	.	16ee\
8r	8gJ 8A/	16bb\	.	8A\J	8e\J	8a/	8cc#\	16bb\
.	.	16gg\JJ	.	.	.	.	.	16gg\JJ
*	*	*	*	*	*	*Xrep	*	*
!	!	!LO:LB:g=original	!	!	!	!	!	!
=12	=12	=12	=12	=12	=12	=12	=12	=12
*	*	*	*	*	*	*rep	*	*
4D\	8f#L 8A/	16ff#\LL	4.ryy	8d\L	8f#\L	8a/	8dd\	16ff#\LL
.	.	16dd\JJ	.	.	.	.	.	16dd\JJ
.	8f# 8A/	8.aa\L	.	8d\	8f#\	8r	8r	8.aa\L
8r	8f#J 8A/	.	.	8d\J	8f#\J	8a/	8dd\	.
.	.	16ff#\Jk	.	.	.	.	.	16ff#\Jk
*	*	*	*	*	*	*Xrep	*	*
=13	=13	=13	=13	=13	=13	=13	=13	=13
*	*	*	*	*	*	*rep	*	*
4AA/	8gL 8A/	16ff#\LL	4.ryy	8A\L	8e\L	8a/	8cc#\	16ff#\LL
.	.	16ee\JJ	.	.	.	.	.	16ee\JJ
.	8g 8A/	8a/L	.	8A\	8e\	8r	8r	8a/L
8A\	8gJ 8A/	8cc#/J	.	8A\J	8e\J	8a/	8cc#\	8cc#/J
*	*Xtremolo	*	*	*Xtremolo	*Xtremolo	*Xrep	*	*
!	!	!	!	!	!	!	!LO:LB:g=original	!
=14	=14	=14	=14	=14	=14	=14	=14	=14
8D\L	8f#L 8A/	8dd\L	4.ryy	8d\L	8f#\L	8a/	4dd\	4dd\
8d\J	8f#J 8A/	8dddJ 8dd\	.	8d\J	8f#\J	8r	.	.
!!LO:TX:t=:mod=Fine.
!	!LO:TX:a:t=Fine:mod=	!LO:TX:a:t=Fine:mod=	!	!LO:TX:a:t=Fine:mod=	!LO:TX:a:t=Fine:mod=	!LO:TX:a:t=Fine:mod=	!LO:TX:a:t=Fine:mod=	!LO:TX:a:t=Fine:mod=
8r	8r	8r	.	8r	8r	8r	8ryy	8r
=15:|!|:	=15:|!|:;	=15:|!|:;	=15:|!|:	=15:|!|:;	=15:|!|:	=15:|!|:;	=15:|!|:;	=15:|!|:;
*>B	*>B	*>B	*>B	*>B	*>B	*>B	*>B	*>B
*	*tremolo	*	*	*	*	*	*	*
!	!	!	!	!LO:TX:a:t=8:mod=	!LO:TX:a:t=8:mod=	!LO:TX:a:t=4:mod=	!	!
!	!	!	!	!LO:MO:mod=!null:null	!LO:MO:mod=!null:null	!LO:MO:mod=!null:null	!	!
!	!	!	!	!LO:N:vis=00	!LO:N:vis=00	!LO:N:vis=00	!	!
8E\	16d/LL	16ee\LL	4.ryy	1.r	1.r	1.r	8dd'\L	16ee\LL
.	16e/	16ff#\	.	.	.	.	.	16ff#\
8r	16d/	16gg#X\	.	.	.	.	(16b\L	16gg#X\
.	16e/	16aa\	.	.	.	.	16cc#\	16aa\
8r	16d/	16bb\	.	.	.	.	16dd\	16bb\
.	16e/JJ	16ccc#\JJ	.	.	.	.	16ee\JJ)	16ccc#\JJ
=16	=16	=16	=16	=16	=16	=16	=16	=16
!	!	!	!	!	!	!	!	!LO:N:vis=8
8AA/	16c#/LL	16aa\LL	4.ryy	.	.	.	8cc#\L	16aa\LL
!	!	!	!	!	!	!	!	!LO:N:vis=16
.	16e/	32bb\L	.	.	.	.	.	32bb\L
!	!	!	!	!	!	!	!	!LO:N:vis=16
.	.	32aa\JJJ	.	.	.	.	.	32aa\JJJ
8r	16c#/	8ee\L	.	.	.	.	8cc#\	8ee\L
.	16e/	.	.	.	.	.	.	.
8r	16c#/	8aa\J	.	.	.	.	8cc#\J	8aa\J
.	16e/JJ	.	.	.	.	.	.	.
!	!LO:LB:g=original	!	!	!	!	!	!	!
=17	=17	=17	=17	=17	=17	=17	=17	=17
!	!	!	!	!	!	!	!LO:TX:t=P:problem=mixed beam:mod=	!
4E\	16d/LL	16ff#\LL	4.ryy	.	.	.	8dd\L	16ff#\LL
.	16e/	32ggn\L	.	.	.	.	.	32gg#X\L
.	.	32ff#\JJJ	.	.	.	.	.	32ff#\JJJ
.	16d/	8b\L	.	.	.	.	8g#X/	8b\L
.	16e/	.	.	.	.	.	.	.
8r	16d/	8ee\J	.	.	.	.	8g#/J	8ee\J
.	16e/JJ	.	.	.	.	.	.	.
!	!	!LO:LB:g=original	!	!	!	!	!	!LO:LB:g=original
=18	=18	=18	=18	=18	=18	=18	=18	=18
4AA/	16c#/LL	4cc#\	4.ryy	.	.	.	4.a/	4cc#\
.	16e/	.	.	.	.	.	.	.
.	16c#/	.	.	.	.	.	.	.
.	16e/	.	.	.	.	.	.	.
!	!	!LO:TUP:b:problem=klamra łukowa	!	!	!	!	!	!LO:TUP:a:problem=klamra łukowa
8r	16c#/	24a/LL	.	.	.	.	.	24a\LL
.	.	24cc#/	.	.	.	.	.	24cc#\
.	16e/JJ	.	.	.	.	.	.	.
.	.	24ee/JJ	.	.	.	.	.	24ee\JJ
!	!	!	!	!	!	!LO:LB:g=original	!	!
=19	=19	=19	=19	=19	=19	=19	=19	=19
!	!	!	!	!	!	!	!LO:TX:a:t=4:mod=	!
!	!	!	!	!LO:MO:mod=!null:null	!LO:MO:mod=!null:null	!	!LO:MO:mod=!null:null	!
!	!	!	!	!LO:N:vis=00	!LO:N:vis=00	!	!LO:N:vis=00	!
4E\	16d/LL	16ee\LL	4.ryy	1.r	1.r	8dd|\L	1.r	16ee\LL
.	16e/	16ff#\	.	.	.	.	.	16ff#\
.	16d/	16gg#X\	.	.	.	(16b\L	.	16gg#X\
.	16e/	16aa\	.	.	.	16cc#\	.	16aa\
8r	16d/	16bb\	.	.	.	16dd\	.	16bb\
.	16e/JJ	16ccc#\JJ	.	.	.	16ee\JJ)	.	16ccc#\JJ
=20	=20	=20	=20	=20	=20	=20	=20	=20
4AA/	16c#/LL	16aa\LL	4.ryy	.	.	8cc#\L	.	16aa\LL
.	16e/	32bb\L	.	.	.	.	.	32bb\L
.	.	32aa\JJJ	.	.	.	.	.	32aa\JJJ
.	16c#/	16ee'\LL	.	.	.	8cc#\	.	16ee'\LL
.	16e/	(16ee\	.	.	.	.	.	(16ee\
8r	16c#/	16ff#\	.	.	.	8cc#\J	.	16ff#\
.	16e/JJ	16ee\JJ)	.	.	.	.	.	16ee\JJ)
!LO:LB:g=original	!	!	!	!	!	!	!	!
=21	=21	=21	=21	=21	=21	=21	=21	=21
!	!	!	!	!	!	!LO:TX:t=P:problem=mixed beam:mod=	!	!
4E\	16d/LL	16ee\LL	4.ryy	.	.	(<8dd\L	.	16ee\LL
.	16e/	16dd\	.	.	.	.	.	16dd\
.	16d/	16b\	.	.	.	8g#X/)	.	16b\
.	16e/	16cc#\JJ	.	.	.	.	.	16cc#\JJ
8E\	16d/	16dd\LL	.	.	.	8g#'/J	.	16dd\LL
.	16e/JJ	32cc#\L	.	.	.	.	.	32cc#\L
*	*Xtremolo	*	*	*	*	*	*	*
.	.	32b\JJJ	.	.	.	.	.	32b\JJJ
=22	=22	=22	=22	=22	=22	=22	=22	=22
*>B1	*>B1	*>B1	*>B1	*>B1	*>B1	*>B1	*>B1	*>B1
!!LO:TX:t=:mod=1a
!LO:TX:t=P:problem=mixed beam:mod=	!	!LO:TX:t=1mo:mod=	!	!	!	!LO:TX:t=1mo:mod=	!	!LO:TX:t=1mo:mod=
8AA/L	16c#/LL	4a/	4.ryy	.	.	8a/L	.	4a/
!	!LO:TX:t=1mo:mod=	!	!	!	!	!	!	!
.	16e/JJ	.	.	.	.	.	.	.
!LO:TX:t=1ma	!	!	!	!	!	!	!	!
8A\J	8c#/	.	.	.	.	8a/J	.	.
8r	8r	8ee\	.	.	.	8r;	.	8ee\
=23:|!	=23:|!	=23:|!	=23:|!	=23:|!	=23:|!	=23:|!	=23:|!	=23:|!
*>B2	*>B2	*>B2	*>B2	*>B2	*>B2	*>B2	*>B2	*>B2
*	*tremolo	*	*	*	*	*	*	*
!!LO:TX:t=:mod=2a
!LO:TX:t=2da	!LO:TX:t=2do:mod=	!	!	!LO:TX:a:t=D.C.	!	!	!LO:TX:a:t=D.C.	!
4AA/	16c#/LL	8a\L	4.ryy	4.ryy	4.ryy	8a/L	4.ryy	(8a\L
.	16e/	.	.	.	.	.	.	.
!	!	!LO:TX:t=2do:mod=	!	!	!	!LO:TX:t=2do:mod=	!	!
.	16c#/	8bb\J	.	.	.	8b/J	.	8bb\J)
.	16e/	.	.	.	.	.	.	.
!	!	!	!	!	!	!	!	!LO:TX:t=2do:mod=
8r	16c#/	16bb-X\LL	.	.	.	16b-X/LL	.	16bb-X\LL
!	!	!	!	!	!	!LO:TX:a:t=Mazur D Capo	!	!
.	16e/JJ	16aa\JJ	.	.	.	16a/JJ	.	16aa\JJ
*	*Xtremolo	*	*	*	*	*	*	*
!	!LO:LB:g=original	!LO:LB:g=original	!	!LO:LB:g=original	!LO:LB:g=original	!LO:LB:g=original	!LO:LB:g=original	!LO:LB:g=original
=24!|:	=24||	=24||	=24||	=24||	=24||	=24||	=24||	=24||
*	*k[f#]	*k[f#]	*k[f#c#]	*k[f#c#]	*k[f#c#]	*k[f#]	*k[f#]	*k[f#]
*	*	*M3/8	*M3/8	*M3/8	*M3/8	*M3/8	*M3/8	*M3/8
*	*	*	*	*tremolo	*tremolo	*tremolo	*	*
*>C	*>C	*>C	*>C	*>C	*>C	*>C	*>C	*>C
!	!LO:TX:t=P:problem=kolejność znaków&colon; ff# ccn:mod=	!LO:TX:t=P:problem=kolejność znaków&colon; ff# ccn:mod=	!	!	!	!LO:TX:t=P:problem=kolejność znaków&colon; ff# ccn:mod=	!LO:TX:t=P:problem=kolejność znaków&colon; ff# ccn:mod=	!LO:TX:t=P:problem=kolejność znaków&colon; ff# ccn:mod=
!LO:TX:t=	!LO:TX:a:t=Trio	!LO:TX:a:t=Trio	!	!LO:TX:a:t=Trio	!LO:TX:a:t=Trio	!LO:TX:a:t=Trio	!LO:TX:a:t=Trio	!LO:TX:a:t=Trio
16G\LL	16bLL 16d/	16dddLL 16dd\	4.ryy	16d\LL	16d\LL	16g/LL	16b\LL	16ddd\LL
16G\	16b 16d/	16ddd 16dd\	.	16d\	16d\	16g/	16b\	16ddd\
16G\	16cc 16d/	16eee 16ee\	.	16d\	16d\	16g/	16ccn\	16eee\
16G\	16b 16d/	16ddd 16dd\	.	16d\	16d\	16g/	16b\	16ddd\
16G\	16a#X 16d/	16ccc#X 16cc#X\	.	16d\	16d\	16g/	16a#X\	16ccc#X\
16G\JJ	16bJJ 16d/	16dddJJ 16dd\	.	16d\JJ	16d\JJ	16g/JJ	16b\JJ	16ddd\JJ
=25	=25	=25	=25	=25	=25	=25	=25	=25
*tremolo	*	*	*	*	*	*	*	*
16G\LL	16ccLL 16d/	16eeeLL 16ee\	4.ryy	16d\LL	16d\LL	16g/LL	16ccn\LL	16eee\LL
16G\	16b 16d/	16ddd 16dd\	.	16d\	16d\	16g/	16b\	16ddd\
16G\	16a#X 16d/	16ccc#X 16cc#X\	.	16d\	16d\	16g/	16a#X\	16ccc#X\
16G\	16b 16d/	16ddd 16dd\	.	16d\	16d\	16g/	16b\	16ddd\
16G\	16cc 16d/	16eee 16ee\	.	16d\	16d\	16g/	16cc\	16eee\
16G\JJ	16bJJ 16d/	16dddJJ 16dd\	.	16d\JJ	16d\JJ	16g/JJ	16b\JJ	16ddd\JJ
=26	=26	=26	=26	=26	=26	=26	=26	=26
!	!	!LO:SIC:v:n=2:s=16cc#\	!	!	!	!	!	!
16G\LL	16a#XLL 16d/	16ccc#XLL 16cc\	4.ryy	16d\LL	16d\LL	16g/LL	16a#X\LL	16ccc#X\LL
16G\	16b 16d/	16ddd 16dd\	.	16d\	16d\	16g/	16b\	16ddd\
16G\	16cc 16d/	16eee 16ee\	.	16d\	16d\	16g/	16ccn\	16eee\
16G\	16b 16d/	16ddd 16dd\	.	16d\	16d\	16g/	16b\	16ddd\
!	!	!LO:SIC:v:s=16ccc# 16cc#\	!	!	!	!	!	!
16G\	16a#X 16d/	16cccn 16cc\	.	16d\	16d\	16g/	16a#\	16ccc#X\
16G\JJ	16bJJ 16d/	16dddJJ 16dd\	.	16d\JJ	16d\JJ	16g/JJ	16b\JJ	16ddd\JJ
*Xtremolo	*	*	*	*Xtremolo	*Xtremolo	*Xtremolo	*	*
=27	=27	=27	=27	=27	=27	=27	=27	=27
8D\L	16ccLL 16d/	16eeeLL 16ee\	4.ryy	16d\LL	16d\LL	(16an/LL	(16an\LL	16eee\LL
.	16ccJJ 16d/	16ddJ 16d\	.	16d\JJ	16d\JJ	16ccn/JJ)	16ccn\JJ)	16dd\JJ
8D\	8ccL 8d/	8ff# 8f#\	.	8d\L	8d\L	8a/L	8a/L	8ff#\L
!LO:TX:a:t=Mazur\nDa Capo	!LO:TX:a:t=Mazur\nDa Capo	!LO:TX:b:t=Mazur Da Capo	!	!LO:TX:a:t=Mazur Da Capo	!LO:TX:a:t=Mazur Da Capo	!LO:TX:a:t=Mazur D&colon; Capo	!LO:TX:a:t=Da\nCapo	!LO:TX:a:t=Mazur\nDa Capo
8G\J	8bJ 8d/	8ggJ 8g\	.	8d\J	8d\J	8b/J	8b/J	8gg\J
=:|!	=:|!	=:|!	=:|!	=:|!	=:|!	=:|!	=:|!	=:|!
*-	*-	*-	*-	*-	*-	*-	*-	*-
!!!system-decoration: [g1][g2][g3]
!!!RDF**kern: | = vertical stroke
!!LO:MO:ori
!!!RDF**kern: > = above
!!!RDF**kern: < = below
!!LO:MO:end
!!!filter-modern: sic -sq | shed -e "s/^(X?)rep$/$1REP/I" | tie -s | autostem -r | modori -m
!!!ENC: Katarzyna Serwa
!!!END: 2021-11-02
!!!ENC: Krzysztof Stępień
!!!END: 2020-10-05
!!!ENC-modern: Leszek Kubiak
!!!END-modern: 2022-07-07
!!!YEC: Copyright 2022 Narodowy Instytut Fryderyka Chopina (https://polishscores.org)
!!!YEM: License CC-BY-4.0 (https://creativecommons.org/licenses/by/4.0)
